X: 22639
T: Laird O' Cockpen, The
R: jig
M: 6/8
K: Dmajor
e|cAA cAA|BGG d2B|cAA cAA|cAA e2c|
BBB cAA|BGB d2B|cec d2B|cAA A2e|
cAA cAA|BGG d2B|cAA eAA|cAA e2d|
cAA eAA|BGG d2B|cec d2B|cAA A2e|
cAA cAA|BGG d2B|cAA eAA|cAA e2d|
dBB cAA|BGG d2B|cec d2B|cAA A2g|
fdd add|ecc g2e|fdd add|fdd a2f|
g2e fdd|edd g2e|faf g2e|fdd d2g|
fed c2A|ecc c2g|fed c2A|fdd d2e|
fed c2A|ccc g2e|faf g2e|fdd d2||

